lib/brands/icons/google-chrome.svg

<svg xmlns="http://www.w3.org/2000/svg" fill="none" aria-hidden="true" viewBox="0 0 48 48"><g id="google-chrome-Icon"><g id="Group"><path id="vector" fill="#EF3F36" d="M23.9492 4.00354C23.9492 4.00354 35.7381 3.4764 41.9882 15.2836H22.9461C22.9461 15.2836 19.3525 15.1682 16.2828 19.5123C15.4009 21.3356 14.4531 23.2138 15.5168 26.9153C13.9845 24.3286 7.38184 12.8729 7.38184 12.8729C7.38184 12.8729 12.039 4.47032 23.9491 4.00354H23.9492Z"/><path id="vector_2" fill="#FCD900" d="M41.3761 33.9776C41.3761 33.9776 35.9363 44.4173 22.5547 43.9011C24.2081 41.0508 32.0783 27.4698 32.0783 27.4698C32.0783 27.4698 33.9798 24.4274 31.7366 19.6056C30.5956 17.9306 29.4327 16.1788 25.6851 15.2451C28.6999 15.2178 41.9549 15.2451 41.9549 15.2451C41.9549 15.2451 46.9205 23.4663 41.3761 33.9776Z"/><path id="vector_3" fill="#61BC5B" d="M6.60454 34.06C6.60454 34.06 0.249822 24.1473 7.3926 12.8563C9.04056 15.7066 16.9108 29.2877 16.9108 29.2877C16.9108 29.2877 18.6084 32.451 23.9159 32.9231C25.9387 32.7749 28.044 32.6486 30.7337 29.8863C29.2509 32.5004 22.5985 43.9233 22.5985 43.9233C22.5985 43.9233 12.9646 44.099 6.60438 34.06H6.60454Z"/><path id="vector_4" fill="#5AB055" d="M22.5498 44L25.2283 32.8628C25.2283 32.8628 28.1715 32.632 30.6407 29.9357C29.1084 32.6212 22.5498 44 22.5498 44V44Z"/><path id="vector_5" fill="white" d="M14.9766 24.1252C14.9766 19.2157 18.9724 15.2342 23.8996 15.2342C28.8267 15.2342 32.8226 19.2157 32.8226 24.1252C32.8226 29.0349 28.8267 33.0163 23.8996 33.0163C18.9724 33.0108 14.9766 29.0349 14.9766 24.1252V24.1252Z"/><path id="vector_6" fill="url(#paint0_linear_94_17984)" d="M16.4697 24.1253C16.4697 20.0395 19.7932 16.7225 23.8993 16.7225C27.9997 16.7225 31.3287 20.0341 31.3287 24.1253C31.3287 28.2113 28.0054 31.5284 23.8993 31.5284C19.7987 31.5284 16.4697 28.2113 16.4697 24.1253V24.1253Z"/><path id="vector_7" fill="#EACA05" d="M41.9493 15.2507L30.9209 18.4744C30.9209 18.4744 29.2565 16.0414 25.6797 15.2507C28.7826 15.2341 41.9493 15.2507 41.9493 15.2507V15.2507Z"/><path id="vector_8" fill="#DF3A32" d="M15.3019 26.509C13.753 23.8344 7.38184 12.8728 7.38184 12.8728L15.5498 20.9238C15.5498 20.9238 14.712 22.6427 15.0262 25.103L15.3017 26.509H15.3019Z"/></g></g><defs><linearGradient id="paint0_linear_94_17984" x1="23.8989" x2="23.8989" y1="16.827" y2="31.0827" gradientUnits="userSpaceOnUse"><stop stop-color="#86BBE5"/><stop offset="1" stop-color="#1072BA"/></linearGradient></defs></svg>

<svg xmlns="http://www.w3.org/2000/svg" fill="none" aria-hidden="true" viewBox="0 0 48 48"><path fill="#EF3F36" d="M23.95 4.004s11.788-.528 18.038 11.28H22.946s-3.594-.116-6.663 4.228c-.882 1.824-1.83 3.702-.766 7.403-1.532-2.586-8.135-14.042-8.135-14.042s4.657-8.403 16.567-8.87Z"/><path fill="#FCD900" d="M41.376 33.977s-5.44 10.44-18.821 9.924l9.524-16.431s1.901-3.043-.342-7.864c-1.141-1.675-2.304-3.427-6.052-4.36 3.015-.028 16.27 0 16.27 0s4.966 8.22-.579 18.731Z"/><path fill="#61BC5B" d="M6.605 34.06s-6.355-9.913.788-21.204c1.648 2.85 9.518 16.432 9.518 16.432s1.697 3.163 7.005 3.635c2.023-.148 4.128-.274 6.818-3.037-1.483 2.614-8.136 14.037-8.136 14.037s-9.633.176-15.994-9.863Z"/><path fill="#5AB055" d="m22.55 44 2.678-11.137s2.943-.231 5.412-2.927A8325.615 8325.615 0 0 1 22.55 44Z"/><path fill="#fff" d="M14.977 24.125c0-4.91 3.995-8.89 8.923-8.89 4.927 0 8.923 3.98 8.923 8.89s-3.996 8.891-8.923 8.891c-4.928-.005-8.923-3.981-8.923-8.89Z"/><path fill="url(#a)" d="M16.47 24.125c0-4.085 3.324-7.402 7.43-7.402 4.1 0 7.43 3.311 7.43 7.402 0 4.086-3.324 7.403-7.43 7.403-4.1 0-7.43-3.317-7.43-7.403Z"/><path fill="#EACA05" d="m41.95 15.25-11.03 3.225s-1.664-2.433-5.241-3.223c3.103-.017 16.27 0 16.27 0Z"/><path fill="#DF3A32" d="M15.302 26.509c-1.549-2.675-7.92-13.636-7.92-13.636l8.168 8.05s-.838 1.72-.524 4.18l.276 1.406Z"/><defs><linearGradient id="a" x1="23.899" x2="23.899" y1="16.827" y2="31.083" gradientUnits="userSpaceOnUse"><stop stop-color="#86BBE5"/><stop offset="1" stop-color="#1072BA"/></linearGradient></defs></svg>
